icons/icn_notas_white.svg

<svg width="24" height="24" xmlns="http://www.w3.org/2000/svg" viewBox="0 0 24 24" fill="none"> <g fill="#fff">
<path d="M5.962206840515137,2.0610053539276123C4.353075981140137,2.0610053539276123,3.038623094558716,3.3815619945526123,3.038623094558716,4.990570545196533L3.038623094558716,19.009368896484375C3.038623094558716,20.618499755859375,4.353075981140137,21.938934326171875,5.962206840515137,21.938934326171875L18.030078887939453,21.938934326171875C19.638965606689453,21.938934326171875,20.961475372314453,20.618499755859375,20.961475372314453,19.009368896484375L20.961475372314453,9.000214576721191C20.961231231689453,8.806000709533691,20.884082794189453,8.619965553283691,20.746875762939453,8.482636451721191L14.516650199890137,2.2758491039276123C14.379931449890137,2.1391303539276123,14.194384574890137,2.0618598461151123,14.001025199890137,2.0611274242401123L13.735400199890137,2.0611274242401123L12.266650199890137,2.0611274242401123ZM5.962206840515137,3.5297553539276123L12.266650199890137,3.5297553539276123L12.266650199890137,9.000214576721191C12.268115043640137,9.402924537658691,12.594286918640137,9.728974342346191,12.997118949890137,9.730561256408691L18.998584747314453,9.730561256408691L19.492725372314453,9.730561256408691L19.492725372314453,19.009368896484375C19.492725372314453,19.831390380859375,18.851856231689453,20.470306396484375,18.030078887939453,20.470306396484375L5.962206840515137,20.470306396484375C5.140185356140137,20.470306396484375,4.507128715515137,19.831390380859375,4.507128715515137,19.009368896484375L4.507128715515137,4.990570545196533C4.507128715515137,4.168671131134033,5.140185356140137,3.5297553539276123,5.962206840515137,3.5297553539276123ZM13.735156059265137,3.5667426586151123L18.455615997314453,8.269623756408691L13.735156059265137,8.269623756408691Z"/> <path fill="#000" d="M7.002734184265137,12.269623756408691C6.807909965515137,12.268403053283691,6.620409965515137,12.344696998596191,6.481982231140137,12.481781959533691C6.343554496765137,12.618988990783691,6.265185356140137,12.805512428283691,6.264697074890137,13.000458717346191C6.265185356140137,13.195282936096191,6.343554496765137,13.381928443908691,6.481982231140137,13.519013404846191C6.620409965515137,13.656098365783691,6.807909965515137,13.732514381408691,7.002734184265137,13.731171607971191L16.997364044189453,13.731171607971191C17.192188262939453,13.732514381408691,17.379444122314453,13.656098365783691,17.518115997314453,13.519013404846191C17.656543731689453,13.381928443908691,17.734668731689453,13.195282936096191,17.735401153564453,13.000458717346191C17.734668731689453,12.805512428283691,17.656543731689453,12.618988990783691,17.518115997314453,12.481781959533691C17.379444122314453,12.344696998596191,17.192188262939453,12.268403053283691,16.997364044189453,12.269623756408691Z"/> <path fill="#000" d="M7.002734184265137,17.266937255859375C6.807909965515137,17.265716552734375,6.620409965515137,17.342010498046875,6.481982231140137,17.479095458984375C6.343554496765137,17.616180419921875,6.265185356140137,17.802825927734375,6.264697074890137,17.997772216796875C6.263232231140137,18.193939208984375,6.340624809265137,18.382415771484375,6.479296684265137,18.521087646484375C6.617968559265137,18.659881591796875,6.806689262390137,18.737152099609375,7.002734184265137,18.735931396484375L12.996630668640137,18.735931396484375C13.192675590515137,18.737152099609375,13.381152153015137,18.659881591796875,13.519824028015137,18.521087646484375C13.658740043640137,18.382415771484375,13.735888481140137,18.193939208984375,13.734667778015137,17.997772216796875C13.733935356140137,17.802825927734375,13.655810356140137,17.616180419921875,13.517382621765137,17.479095458984375C13.378710746765137,17.342010498046875,13.191454887390137,17.265716552734375,12.996630668640137,17.266937255859375Z"/> <path fill="#000" d="M7.002734184265137,7.264984607696533C6.806689262390137,7.263763904571533,6.617968559265137,7.341034412384033,6.479296684265137,7.479828357696533C6.340624809265137,7.618500232696533,6.263232231140137,7.806976795196533,6.264697074890137,8.003144264221191C6.265185356140137,8.198090553283691,6.343554496765137,8.384613990783691,6.481982231140137,8.521821022033691C6.620409965515137,8.658905982971191,6.807909965515137,8.735199928283691,7.002734184265137,8.733979225158691L9.999560356140137,8.733979225158691C10.402636528015137,8.732514381408691,10.729052543640137,8.406220436096191,10.730517387390137,8.003144264221191C10.731738090515137,7.808319568634033,10.655322074890137,7.620941638946533,10.518359184265137,7.482391834259033C10.381152153015137,7.343842029571533,10.194628715515137,7.265717029571533,9.999560356140137,7.264984607696533Z"/>
</g>
</svg>

<svg width="24" height="24" xmlns="http://www.w3.org/2000/svg" viewBox="0 0 24 24" fill="none">
  <g fill="#fff">
    <path d="M5.9622 2.061c-1.6091 0-2.9236 1.3206-2.9236 2.9296v14.0188c0 1.6091 1.3145 2.9295 2.9236 2.9295h12.0679c1.6089 0 2.9314-1.3204 2.9314-2.9295V9.0002a.7334.7334 0 0 0-.2146-.5176l-6.2302-6.2068a.7336.7336 0 0 0-.5157-.2147h-1.7343Zm0 1.4688h6.3045v5.4704a.7332.7332 0 0 0 .7304.7304h6.4956v9.2788c0 .822-.6408 1.461-1.4626 1.461H5.9622c-.822 0-1.455-.639-1.455-1.461V4.9906c0-.822.633-1.4608 1.455-1.4608Zm7.773.037 4.7204 4.7028h-4.7204Z"/>
    <path d="M7.0027 12.2696a.733.733 0 0 0-.738.7308.7331.7331 0 0 0 .738.7307h9.9947a.7336.7336 0 0 0 .5207-.212.7337.7337 0 0 0 .2173-.5186.734.734 0 0 0-.2173-.5187.734.734 0 0 0-.5207-.2122ZM7.0027 17.267a.7328.7328 0 0 0-.738.7308.7324.7324 0 0 0 .2146.5233.7336.7336 0 0 0 .5234.2148h5.994a.733.733 0 0 0 .5231-.2148.7326.7326 0 0 0 .2149-.5233.7338.7338 0 0 0-.2173-.5187.734.734 0 0 0-.5208-.2122ZM7.0027 7.265a.7336.7336 0 0 0-.5234.2148.7324.7324 0 0 0-.2146.5233.733.733 0 0 0 .738.7309h2.9969a.7335.7335 0 0 0 .731-.7309.7337.7337 0 0 0-.731-.7382Z"/>
  </g>
</svg>
